X:100
T:Nimble Nine Pence. JJo.100, The
B:J.Johnson Choice Collection Vol 8 1758
Z:vmp.Simon Wilson 2013 www.village-music-project.org.uk
Z:Dance added by John Chambers 2017
M:6/8
L:1/8
%Q:3/8=120
K:A
|:\
A2E A2c | dcB c2B | A2E A2c | dcB c2e |\
fge ^dBd | efg a2f | (g2b) (e2g) | fe^d e3 :|
|:\
ecd e2=g | fed cec | dBc d2f | edc BcA |\
(a2A) (c2A) | d2B cde | fga A2c | BAG A3 :|
%%begintext align
%% First Cu. cast off and hands 4 round
%% with the 3d Cu. .| cast up back again
%% and hands 4 round with the 2d Cu. :|
%% 1st Cu. lead down the Middle one
%% Cu. up again and cast off :||. Right
%% hands and Left :||:
%%endtext
